frontend/public/svg/hand gestures/point-down.svg

<svg width="113" height="136" viewBox="0 0 113 136" fill="none" xmlns="http://www.w3.org/2000/svg">
<g clip-path="url(#clip0)">
<path d="M101.439 16.9134C104.596 21.4988 106.893 26.6198 108.218 32.0268C110.909 43.1189 112.194 52.6967 112.194 61.7588C112.194 63.3475 112.155 64.9229 112.076 66.4848C111.836 70.1019 111.04 73.6606 109.719 77.0361C107.73 82.3341 102.559 85.1819 96.8504 84.1246C95.4189 83.7918 94.0347 83.2818 92.7299 82.6058C92.2114 82.3643 91.6797 82.1155 91.1429 81.891C84.6333 90.6722 79.6569 91.8352 70.9277 86.599C69.3157 88.9788 67.3335 91.2215 63.9781 91.8923C60.7397 92.5401 58.1675 91.2327 55.2324 89.372C55.1503 90.6315 55.0781 91.8661 55.0073 93.0764C54.8287 96.1152 54.6594 98.9834 54.3739 101.871L54.1265 104.395C53.541 110.383 52.9359 116.573 51.9605 122.606C51.4899 125.513 50.0841 128.284 48.7241 130.964L48.6493 131.11C46.9579 134.445 44.4422 136.042 41.3764 135.727C37.5139 135.329 34.7225 133.341 33.5161 130.131C32.7084 127.703 32.1638 125.197 31.8917 122.654L31.7801 121.881C31.6313 120.629 31.5797 119.367 31.6259 118.106C31.6318 117.555 31.6383 117.004 31.6259 116.456C31.5773 113.896 31.5222 111.336 31.4605 108.777C31.3292 102.909 31.1894 96.8411 31.1684 90.8711C31.1507 86.2472 31.2708 81.6725 31.3968 76.8248C31.4474 74.8682 31.4992 72.8815 31.5425 70.8528L31.0227 71.2498C30.4418 71.6942 29.9883 72.0374 29.523 72.3722C23.999 76.3036 17.2347 78.0935 10.4892 77.4096C6.15207 77.0538 3.29439 75.1327 1.9955 71.6988C0.409788 67.5048 0.96964 63.7778 3.66128 60.6176C4.25931 59.9457 4.90015 59.3134 5.57976 58.7242C6.17056 58.2081 6.73423 57.6616 7.26852 57.0872C8.17755 56.0731 9.13121 55.0623 10.054 54.0843C12.562 51.5822 14.8446 48.8638 16.8753 45.9608C18.9761 42.5991 20.8855 39.1214 22.5947 35.5447C23.5647 33.6078 24.5683 31.6068 25.6204 29.6732C28.0876 25.1445 30.7398 20.3275 33.6612 15.6465C34.8937 13.7227 36.4603 12.0348 38.287 10.6625C51.6941 0.433457 66.3241 -2.29648 81.7704 2.54991C89.7829 4.93387 96.729 10.0066 101.439 16.9134ZM33.8896 56.7997C35.5718 56.7918 36.8057 57.8497 37.275 59.7064C37.5204 60.7111 37.6426 61.7421 37.6386 62.7763C37.6458 65.1279 37.6255 69.8591 37.5992 75.8468C37.5336 90.6643 37.4364 113.055 37.6924 121.008C37.7838 122.896 38.0061 124.776 38.3579 126.633C38.5073 127.466 38.8388 128.257 39.3287 128.949C40.0874 129.995 40.9551 130.543 41.7722 130.493C42.5368 130.446 43.2378 129.886 43.7977 128.873C44.9897 126.756 45.8716 124.479 46.4165 122.112C47.1306 118.722 47.5898 115.284 47.7902 111.825C48.0127 108.258 48.1315 104.622 48.2496 101.105C48.329 98.6657 48.4111 96.1434 48.5272 93.6638C48.7241 89.4704 49.0077 84.8754 49.4185 79.2033C49.5846 76.9147 50.5999 75.5777 52.271 75.4366C54.5025 75.2476 55.3381 76.9403 56.0121 78.3009C56.2504 78.7833 56.4834 79.2723 56.7177 79.7612C57.556 81.6968 58.6008 83.5365 59.834 85.2476C60.8047 86.4867 62.0478 87.0899 63.2469 86.9022C64.4743 86.7099 65.5014 85.7208 66.0652 84.1941C66.5112 82.7568 66.7612 81.2649 66.8091 79.7606C66.8465 79.2854 66.884 78.8102 66.9319 78.3416C66.9686 77.8067 66.9542 77.2691 66.8899 76.7368C66.8597 76.389 66.8295 76.0405 66.8242 75.6933V75.5955C66.8242 73.9474 67.6033 72.9307 69.0827 72.6505C70.7426 72.3361 71.9476 73.1322 72.474 74.8925C72.5711 75.2168 72.6413 75.5482 72.7109 75.8829C72.7877 76.3122 72.8993 76.7349 73.045 77.1464C73.2104 77.5743 73.3732 78.0055 73.53 78.4381C74.0203 79.8925 74.6346 81.3023 75.3678 82.6504C76.6352 84.8163 78.1402 85.3289 80.7333 84.4737C83.5057 83.5601 85.1741 81.7388 85.6939 79.059C85.9578 77.4844 86.1087 75.8928 86.1468 74.2966L86.1895 73.4223C86.2709 71.8766 86.3713 69.9536 88.5346 69.3261C90.688 68.7013 91.7769 70.1899 92.6275 71.6338L92.8244 71.9659C93.4853 73.0889 94.1686 74.2506 94.9325 75.3178C96.597 77.6439 98.1762 78.5057 100.211 78.1985C102.434 77.8638 103.332 76.1199 104.197 74.0472C106.245 68.9625 106.955 63.4382 106.261 58.0009C105.595 51.9626 104.648 45.4042 103.279 37.3621C102.152 31.3043 99.67 25.5799 96.0188 20.6165C92.6098 15.8134 87.4208 12.281 80.5883 10.1151C67.5488 5.98477 54.8852 8.21542 42.949 16.7439C41.7799 17.5481 40.762 18.5527 39.9423 19.7112C38.2923 22.1744 36.1631 25.4403 34.33 28.8586C31.7985 33.5789 29.3615 38.4335 27.0866 43.2871C22.8303 52.3669 17.5146 59.3559 10.8344 64.6559C9.90018 65.4049 9.09918 66.3063 8.46503 67.3217C8.10549 67.852 7.90091 68.4716 7.87432 69.1115C7.8738 69.3333 7.90675 69.5552 7.97212 69.7678C8.15287 70.2128 8.42696 70.6138 8.77593 70.9433C9.12491 71.2735 9.54057 71.5248 9.99495 71.6811C13.4781 73.211 16.9521 72.3098 19.5932 71.3529C26.1901 68.9625 29.7067 65.305 30.6584 59.843C30.9866 57.9153 32.168 56.8063 33.8896 56.7997Z" fill="black"/>
</g>
<defs>
<clipPath id="clip0">
<rect width="111.577" height="135.862" fill="white" transform="translate(0.671265 0.0727539)"/>
</clipPath>
</defs>
</svg>

<svg xmlns="http://www.w3.org/2000/svg" width="113" height="136" fill="none" viewBox="0 0 113 136"><g clip-path="url(#a)"><path fill="#000" d="M101.439 16.913a45.9 45.9 0 0 1 6.779 15.114c2.691 11.092 3.976 20.67 3.976 29.732a94 94 0 0 1-.118 4.726 35.4 35.4 0 0 1-2.357 10.551c-1.989 5.298-7.16 8.146-12.869 7.089a17.6 17.6 0 0 1-4.12-1.52c-.519-.24-1.05-.49-1.587-.714-6.51 8.781-11.486 9.944-20.215 4.708-1.612 2.38-3.594 4.623-6.95 5.293-3.238.648-5.81-.66-8.746-2.52-.082 1.26-.154 2.494-.225 3.704-.178 3.04-.348 5.907-.633 8.795l-.248 2.524c-.585 5.988-1.19 12.178-2.165 18.211-.471 2.907-1.877 5.678-3.237 8.358l-.075.146c-1.691 3.335-4.207 4.932-7.273 4.617-3.862-.398-6.654-2.386-7.86-5.596a35.7 35.7 0 0 1-1.624-7.477l-.112-.773a24.4 24.4 0 0 1-.154-3.775c.006-.551.012-1.102 0-1.65q-.073-3.84-.166-7.679c-.13-5.868-.27-11.936-.292-17.906-.017-4.624.103-9.198.229-14.046.05-1.957.102-3.943.146-5.972l-.52.397a63 63 0 0 1-1.5 1.122 27.96 27.96 0 0 1-19.034 5.038c-4.337-.356-7.195-2.277-8.494-5.711C.41 67.505.97 63.778 3.661 60.618a21 21 0 0 1 1.919-1.894 23 23 0 0 0 1.689-1.637 162 162 0 0 1 2.785-3.003 60.3 60.3 0 0 0 6.821-8.123c2.101-3.362 4.01-6.84 5.72-10.416.97-1.937 1.973-3.938 3.025-5.872 2.468-4.528 5.12-9.345 8.041-14.026a19.2 19.2 0 0 1 4.626-4.985C51.694.434 66.324-2.296 81.77 2.55a36.36 36.36 0 0 1 19.669 14.363M33.889 56.8c1.683-.008 2.917 1.05 3.386 2.906.245 1.005.368 2.036.364 3.07.007 2.352-.014 7.083-.04 13.07-.065 14.818-.163 37.209.093 45.162a41 41 0 0 0 .666 5.625c.15.833.48 1.624.97 2.316.76 1.046 1.627 1.594 2.444 1.544.765-.047 1.466-.607 2.026-1.62a25.4 25.4 0 0 0 2.618-6.761 69.4 69.4 0 0 0 1.374-10.287c.223-3.567.342-7.203.46-10.72.079-2.44.161-4.962.277-7.441.197-4.194.48-8.789.892-14.46.166-2.29 1.18-3.626 2.852-3.767 2.231-.19 3.067 1.503 3.741 2.864q.355.725.706 1.46a29.3 29.3 0 0 0 3.116 5.487c.97 1.239 2.214 1.842 3.413 1.654 1.227-.192 2.254-1.181 2.818-2.708a16.8 16.8 0 0 0 .744-4.433c.038-.476.075-.95.123-1.42a8.5 8.5 0 0 0-.042-1.604 15 15 0 0 1-.066-1.044v-.097c0-1.649.78-2.665 2.259-2.946 1.66-.314 2.865.482 3.391 2.242.097.325.167.656.237.99q.115.646.334 1.264.249.643.485 1.292a26.6 26.6 0 0 0 1.838 4.212c1.267 2.166 2.772 2.679 5.365 1.824 2.773-.914 4.441-2.735 4.96-5.415.265-1.575.416-3.166.454-4.762l.042-.875c.082-1.545.182-3.468 2.346-4.096 2.153-.625 3.242.864 4.093 2.308l.196.332c.661 1.123 1.345 2.285 2.109 3.352 1.664 2.326 3.243 3.188 5.278 2.88 2.223-.334 3.121-2.078 3.986-4.15A32.1 32.1 0 0 0 106.261 58c-.666-6.038-1.613-12.597-2.982-20.639a40.9 40.9 0 0 0-7.26-16.746c-3.41-4.803-8.598-8.335-15.43-10.5-13.04-4.131-25.704-1.9-37.64 6.628a12 12 0 0 0-3.007 2.967c-1.65 2.463-3.779 5.73-5.612 9.148a301 301 0 0 0-7.243 14.428c-4.257 9.08-9.572 16.069-16.253 21.369a10.6 10.6 0 0 0-2.369 2.666c-.36.53-.564 1.15-.59 1.79-.001.221.032.443.097.656a3.35 3.35 0 0 0 2.023 1.913c3.483 1.53 6.957.629 9.598-.328 6.597-2.39 10.114-6.048 11.065-11.51.329-1.928 1.51-3.037 3.232-3.043"/></g><defs><clipPath id="a"><path fill="#fff" d="M.671.073h111.577v135.862H.671z"/></clipPath></defs></svg>
